!!!COM: Anon.
!!!OTL: O que tens, o/ minha filha
!!!OTL: Romanceiro Folclorico do Brasil
!!!CNT: Brasil
!!!OCY: Brasil
!!!ODT: <1971///
!!!PSR: Irmaos Vitale
!!!PSP: Sao Paulo, Brasil
!!!PDT: 1949///
!!!PPE: Rossini Tavares de Lima
!!!PPG: page 15
!! Romance: Juliana E D. Jorge
!! Place: Bairro de Perdizes, Capital, Sao Paulo, Brasil
**kern
*clefG2
*k[b-e-a-]
*M3/4
*MM??
8g
8ee-
=
4cc
4g
8f
8e-
=
4g
4d
8g
8dd
=
4bn
4g
8an
8b
=
4cc
4r
8g
8g
=
4a-
4f
8dd
8cc
=
4e-
4g
8b-
8a-
=
4d
4f
8a-
8g
=
2c
==
*-
